X: 805
T: Gele Gele Geldik Bir Kara Taşa
C: Tahir Oturan
O: Turkey
F: http://compmusic.upf.edu/node/140
N: tahir--turku--yuruksemai--gele_gele--urfa
N: makam= tahir
N: form= turku
N: usul= yuruksemai = 6/8
M: 6/8
L: 1/16
K: C _2/4B ^3/4f  
Q: 1/4=96
%%MIDI tuningsystem comma53
g2g4a2 a4a4 c'2b2a2g2  | g2=f2e2d2 d2c2edec c2B2B2A2  | 
w:  ARANAĞME  |   | 
A6B2 G4e4 e2d4c2  | c2B2B2A2 A6Bc defga4  | \
w:   |   | 
g4g4 c'2b2c'2a2 b2c'd'c'd'b2  | 
w:  Ge le  ge *  le  *  gel  | 
b2a2c'2ba a8 d'4d'2c'2  | c'2_b2a2g2 g2a4ga =fgefd4  | 
w:  *  *  *  *  *  dik  bir  ka  |  ra  *  ta *  şa    | 
g2g4a2 a4a4 c'2b2a2g2  | g2=f2e2d2 d2c2edec c2B2B2A2  | 
w:  Ya zı *  lan lar  ge  |  lir  *  *  *  sağ_ *  o *  *  *  lan  *  ba  | 
A6B2 G4e4 e2d4c2  | c2B2B2A2 A6Bc defga4  | \
w:  şa  *  *  a man   |  e *  fen *  dim   SAZ  | 
g2g4a2 a4a4 c'2b2a2g2  | 
w:  Ya zı *  lan lar  ge  | 
g2=f2e2d2 d2c2edec c2B2B2A2  | A6B2 G4e4 e2d4c2  | 
w:  lir  *  *  *  sağ_ *  o *  *  *  lan  *  ba  |  şa  *  *  a man   | 
c2B2B2A2 A6Bc defga4  | g4g4 c'2b2c'2a2 b2c'd'c'd'b2  | 
w:  e *  fen *  dim   SAZ  |  Bi zi  has *  ret  *  ko  | 
b2a2c'2ba a8 d'4d'2c'2  | c'2_b2a2g2 g2a4ga =fgefd4  | 
w:  *  *  *  *  *  yar  ka vim   |  kar *  da *  şa    | 
g2g4a2 a4a4 c'2b2a2g2  | g2=f2e2d2 d2c2edec c2B2B2A2  | 
w:  Bir_ ay *  rı lık  bir  *  yok  |  sul *  luk  *  bir_ *  *  *  *  *  *  *  ö  | 
A6B2 G4e4 e2d4c2  | c2B2B2A2 A6Bc defga4  | \
w:  lüm  *  *  a man   |  e *  fen *  dim   SAZ  | 
g2g4a2 a4a4 c'2b2a2g2  | 
w:  Bir_ ay *  rı lık  bir  *  yok  | 
g2=f2e2d2 d2c2edec c2B2B2A2  | A6B2 G4e4 e2d4c2  | 
w:  sul *  luk  *  bir_ *  *  *  *  *  *  *  ö  |  lüm  *  *  a man   | 
c2B2B2A2 A6Bc defga4  | g2g4a2 a4a4 c'2b2a2g2  | 
w:  e *  fen *  dim   SAZ  |  ARANAĞME  | 
g2=f2e2d2 d2c2edec c2B2B2A2  | A6B2 G4e4 e2d4c2  | 
w:   |   | 
c2B2B2A2 A6Bc defga4  | g4g4 c'2b2c'2a2 b2c'd'c'd'b2  | 
w:   |  Ge le  ge *  le  *  gel  | 
b2a2c'2ba a8 d'4d'2c'2  | c'2_b2a2g2 g2a4ga =fgefd4  | 
w:  *  *  *  *  *  dik  bir  ka  |  ra  *  ta *  şa    | 
g2g4a2 a4a4 c'2b2a2g2  | g2=f2e2d2 d2c2edec c2B2B2A2  | 
w:  Ya zı *  lan lar  ge  |  lir  *  *  *  sağ_ *  o *  *  *  lan  *  ba  | 
A6B2 G4e4 e2d4c2  | c2B2B2A2 A6Bc defga4  | \
w:  şa  *  *  a man   |  e *  fen *  dim   SAZ  | 
g2g4a2 a4a4 c'2b2a2g2  | 
w:  Ya zı *  lan lar  ge  | 
g2=f2e2d2 d2c2edec c2B2B2A2  | A6B2 G4e4 e2d4c2  | 
w:  lir  *  *  *  sağ_ *  o *  *  *  lan  *  ba  |  şa  *  *  a man   | 
c2B2B2A2 A6Bc defga4  | g4g4 c'2b2c'2a2 b2c'd'c'd'b2  | 
w:  e *  fen *  dim   SAZ  |  Bi zi  has *  ret  *  ko  | 
b2a2c'2ba a8 d'4d'2c'2  | c'2_b2a2g2 g2a4ga =fgefd4  | 
w:  *  *  *  *  *  yar  ka vim   |  kar *  da *  şa    | 
g2g4a2 a4a4 c'2b2a2g2  | g2=f2e2d2 d2c2edec c2B2B2A2  | 
w:  Bir_ ay *  rı lık  bir  *  yok  |  sul *  luk  *  bir_ *  *  *  *  *  *  *  ö  | 
A6B2 G4e4 e2d4c2  | c2B2B2A2 A6|
w:  lüm  *  *  a man   |  e *  fen *  dim    | 


